!!!OTL: Graf und Nonne (Die Nonne)
!!!OTL-incipit:Ich stand auf hohem Berge
!!!ARE: Europa, Mitteleuropa, Deutschland (BRD), Nordrhein - Westfalen, Attendorn
!!!YOR: 8, S. 48
!!    1908 aufgezeichnet
!!!SCT: Q0155I
!!!TXL: @@DE
!!!YEM: Copyright 1995, estate of Helmut Schaffrath.
**kern	**text
*ICvox	*
*M4/4	*
*met(c)	*
*k[b-]	*
*F:	*
{4c	Ich
=1	=1
4.f	stand
8c	auf
4A	ho-
4c	-hem
=2	=2
(4f	Ber-
4a)	.
4a}	-ge
{4cc	und
=3	=3
4.g	schaut
8f	hi-
4e	-ab
4f	in's
=4	=4
2g	Tal.
4r}	.
{8fL	Da
8gJ	sah
=5	=5
4a	ich
4a	ein
4a	Schiff-
4a	-lein
=6	=6
(4a	schwim-
4cc)	.
4b-}	-men,
{8aL	da
8aJ	sah
=7	=7
4g	ich
4g	ein
4g	Schiff-
4g	-lein
=8	=8
(4g	schwim-
4dd)	.
4cc}	-men,
{(8ccL	wo-
8b-J)	.
=9	=9
4a	-rin
4a	drei
4g	Gra-
4g	-fen
=10	=10
2a	warn,
4r}	.
{4dd	wo-
=11	=11
4.cc	-rin
8a	drei
4b-	Gra-
4cc	-fen
=12	=12
2a	war'n.
4r}	.
==	==
!!!AGN: Ballade, Standesunterschied, vergebliche Werbung, Liebe, Klage
!!!ONB: ESAC (Essen Associative Code) Database: BALLADE
!!!AMT: simple quadruple
!!!AIN: vox
!!!EED: Helmut Schaffrath
!!!EEV: 1.0
!!@@COMMENT:"Aufʒeichnung in Attendorn in Westfalen durch Pickert, um 1908 (DVA -A67 636)"
!!@@END:
!!!source: Deutsche Volkslieder mit ihren Melodien. Herausgegeben vom Deutschen Volksliedarchiv. Achter Teil. Freiburg/Breisgau 1988.
!!!page: 48
!!!ENC: Anna Maria Matuszewska
!!!EEV: 2025/03/10
*-	*-
